X: 2031
T: Ross Creek
B: steve tunes
M:4/4
Q: 1/4=170
K:Em
V:1 
"Em"Bdef e2 ee|fefe "D"g2e2|"Em"Bdef e2 ee|"D"feg2"Em"e4|
"Em"Bdef e2 ee|fefe "D"g2e2|"Em"Bdef e2 ee|"D"feg2"Em"e4|
"Em"b2bag2-ge|"D"fed2"Em"efga|"Em"b2bag2e2|"D"fed2"Em"e4|
"Em"b2bag2-ge|"D"fed2"Em"efga|"Em"b2bag2e2|"D"fed2"Em"e4|
W: 
% abcbook-tune_id 62a420d112348689839983a3


% abcbook-boost 0
% abcbook-tablature 
% abcbook-transpose 
% abcbook-lastupdated 1655014347700
% abcbook-soundfonts 
% abcbook-repeats 3


